X:1
T:Title
%%score { 1 | 2 }
L:1/8
M:4/4
K:D
V:1 treble nm="Grand Piano"
V:2 bass 
V:1
 z4 z2[Q:1/4=90] [DF][EG] | [FA][Fd][Fc][GB] [FA]2 DE | FBAD F2 FF | %3
 [CA][CE][CE][DF] [EG][Ac][GB][EG] |[M:3/4] [DF]6 |[M:1/4] [DF][EG] | %6
[M:4/4] [FA][Fd][Fc][GB] [FA]2 DE | FBAD F2 FF | [CA][CE][DF][EG] [DF]2 [CE]2 |[M:3/4] D6 | %10
[M:1/4] [Fd][Ac] |[M:4/4] [Ac]BBB BBcB | [GB][FA][FA][FA] [FA]2 [Fd][Ac] | BBBB [FA]FFF | %14
[M:7/8] EEF ^G [CA]3 |[M:1/4] [Fd][Ac] |[M:4/4] [Ac]BBB BBcB | [GB][FA][FA][FA] [FA]2 [Fd][Ac] | %18
 [GB][GB][^Ge][Gd] ccBc |[M:3/4] [Fd]6 |] %20
V:2
 z4 z2 [D,A,][D,A,] | [D,D][D,A,][D,D][D,D] [D,D]2 [D,F,][D,G,D] | %2
 [D,A,D][D,G,D][D,F,D][D,F,] [D,A,D]2 [D,A,D][D,A,D] | %3
 [A,,A,][A,,A,][A,,A,][A,,A,] [A,,A,][A,,A,][A,,A,][C,A,] |[M:3/4] [D,A,]6 |[M:1/4] [D,A,][D,A,] | %6
[M:4/4] [D,D][D,A,][D,D][D,D] [D,D]2 [D,F,][D,G,D] | %7
 [D,A,D][D,G,D][D,F,D][D,F,] [D,A,D]2 [D,A,D][D,A,D] | %8
 [A,,A,][A,,A,][A,,A,][A,,A,] [A,,A,]2 [A,,G,]2 |[M:3/4] [D,F,]6 |[M:1/4] [D,A,][D,D] | %11
[M:4/4][K:treble] [G,D][G,DG][G,DG][G,DG] [G,DG][G,DG][G,EG][G,DG] | %12
 [D,D][D,D][D,D][D,D] [D,D]2 [D,A,][D,D] | %13
 [G,DG][G,DG][G,DG][G,DG][K:bass] [D,D][D,A,D][D,A,D][D,A,D] | %14
[M:7/8] [E,A,C][E,A,C][E,B,D] [E,B,D] [A,,A,]3 |[M:1/4] [D,A,][D,D] | %16
[M:4/4][K:treble] [G,D][G,DG][G,DG][G,DG] [G,DG][G,DG][G,EG][G,DG] | %17
 [D,D][D,D][D,D][D,D] [D,D]2 [D,A,][D,D] | %18
 [G,D][G,D][E,E][E,E][K:treble] [A,EG][A,EG][A,DG][A,EG] |[M:3/4][K:bass] [D,D]6 |] %20

